React/src/assets/images/otherSkills/git.svg

<svg width="130" height="130" viewBox="0 0 130 130" fill="none" xmlns="http://www.w3.org/2000/svg">
<path d="M14.0834 57.3628L45.3917 26.0003L54.5459 35.2086C53.2459 39.8128 55.3584 44.8503 59.5834 47.2878V77.2962C56.3334 79.1378 54.1667 82.6586 54.1667 86.667C54.1667 89.5402 55.3081 92.2957 57.3397 94.3273C59.3714 96.3589 62.1269 97.5003 65 97.5003C67.8732 97.5003 70.6287 96.3589 72.6604 94.3273C74.692 92.2957 75.8334 89.5402 75.8334 86.667C75.8334 82.6586 73.6667 79.1378 70.4167 77.2962V50.9711L81.6292 62.292C81.25 63.1045 81.25 64.0253 81.25 65.0003C81.25 67.8735 82.3914 70.629 84.423 72.6606C86.4547 74.6923 89.2102 75.8336 92.0834 75.8336C94.9565 75.8336 97.712 74.6923 99.7437 72.6606C101.775 70.629 102.917 67.8735 102.917 65.0003C102.917 62.1271 101.775 59.3716 99.7437 57.34C97.712 55.3083 94.9565 54.167 92.0834 54.167C91.1084 54.167 90.1875 54.167 89.375 54.5461L75.4542 40.6253C76.8625 35.5878 74.2625 30.0628 69.225 27.9503C66.8959 27.0836 64.4584 26.867 62.2917 27.4628L53.0834 18.3086L57.3625 14.0836C61.5875 9.80448 68.4125 9.80448 72.6375 14.0836L115.917 57.3628C120.196 61.5878 120.196 68.4128 115.917 72.6378L72.6375 115.917C68.4125 120.196 61.5875 120.196 57.3625 115.917L14.0834 72.6378C9.8042 68.4128 9.8042 61.5878 14.0834 57.3628V57.3628Z" fill="#E64A19"/>
</svg>

<svg width="130" height="130" fill="none" xmlns="http://www.w3.org/2000/svg"><path d="M14.083 57.363L45.392 26l9.154 9.209c-1.3 4.604.812 9.641 5.037 12.079v30.008c-3.25 1.842-5.416 5.363-5.416 9.371a10.833 10.833 0 0021.666 0c0-4.008-2.166-7.53-5.416-9.37V50.97l11.212 11.321c-.379.813-.379 1.733-.379 2.708a10.833 10.833 0 1010.833-10.833c-.975 0-1.895 0-2.708.38l-13.92-13.922c1.407-5.037-1.192-10.562-6.23-12.675-2.33-.866-4.767-1.083-6.933-.487l-9.209-9.154 4.28-4.225a10.692 10.692 0 0115.275 0l43.279 43.279a10.693 10.693 0 010 15.275l-43.28 43.279a10.693 10.693 0 01-15.275 0l-43.279-43.28a10.692 10.692 0 010-15.274z" fill="#E64A19"/></svg>
